ukui-icon-theme/128x128/devices/camera.svg

<?xml version="1.0" encoding="iso-8859-1"?>
<!-- Generator: Adobe Illustrator 21.0.0, SVG Export Plug-In . SVG Version: 6.00 Build 0)  -->
<svg version="1.1" id="&#x56FE;&#x5C42;_1" xmlns="http://www.w3.org/2000/svg" xmlns:xlink="http://www.w3.org/1999/xlink" x="0px"
	 y="0px" viewBox="0 0 128 128" style="enable-background:new 0 0 128 128;" xml:space="preserve">
<g>
	
		<image style="overflow:visible;enable-background:new    ;" width="16" height="13" xlink:href="data:image/png;base64,iVBORw0KGgoAAAANSUhEUgAAABAAAAANCAIAAAAv2XlzAAAACXBIWXMAAAsSAAALEgHS3X78AAAA
rElEQVQoU72RSwvCMBCE26Sxh4Q8vDQ0pkH8///RjxULKUXwoHOanZndzWMY/oRxHLXW0zQZYy5v
GAEiFoGuAWmeZ+dcCCGldBVAKBGxCHQNjLHWEso5l1JuAgglIhaBroHV3vtlWci11u4CCCUiFoFj
A9uZt20b0YcAUmtFxDpp+G7DfgfsdV2LAEJ5fgelFE+BwbAYYxJAOAwiFoGugWdGev3D/hWf/uGH
eAL49hMtI8O5kQAAAABJRU5ErkJggg==" transform="matrix(1 0 0 1 77 33)">
	</image>
</g>
<title>画板 19</title>
<g>
	<g id="&#x5F00;&#x59CB;&#x83DC;&#x5355;&#x5E94;&#x7528;&#x56FE;&#x6807;">
		<g id="&#x7167;&#x76F8;&#x673A;">
			<g id="_128">
				<g style="opacity:0.2;">
					<path d="M12.32,100.64V64.57h-1.16c-3.402,0-6.16-2.759-6.159-6.161c0-3.402,2.758-6.159,6.159-6.159h1.16V37h3.39v-7.32h3.7
						v-2.32h12.08v2.31h3.7V37H36v-7.32h19.51V37h3.08v-2.55c0.006-2.632,2.138-4.764,4.77-4.77h52.09v22.57h1.39
						c3.402,0,6.16,2.759,6.159,6.161c0,3.402-2.758,6.159-6.159,6.159h-1.39v36.06L12.32,100.64z"/>
				</g>
				<g style="opacity:0.08;">
					<path d="M12.32,104.64V68.53c-4.482-0.473-7.732-4.489-7.259-8.971c0.404-3.829,3.43-6.855,7.259-7.259V37h3.39v-7.32h3.7
						v-2.32h16.08v2.31h24V33c1.212-2.083,3.44-3.366,5.85-3.37h54.09v22.6c4.493,0.353,7.849,4.28,7.497,8.773
						c-0.314,4.003-3.494,7.183-7.497,7.497v36.09L12.32,104.64z"/>
				</g>
				<g style="opacity:0.1;">
					<path d="M14.32,102.64V66.57h-1.16c-3.402,0-6.16-2.759-6.159-6.161c0-3.402,2.758-6.159,6.159-6.159h1.16V39h3.39v-7.32h3.7
						v-2.32h12.08v2.31h3.7V39H38v-7.32h19.51V39h3.08v-2.55c0.006-2.632,2.138-4.764,4.77-4.77h52.09v22.57h1.39
						c3.402,0,6.16,2.759,6.159,6.161c0,3.402-2.758,6.159-6.159,6.159h-1.39v36.06L14.32,102.64z"/>
				</g>
				<path d="M116.84,54.25h-3.39V31.68H63.36c-1.528,0.005-2.765,1.242-2.77,2.77V39h-7.08v-7.32H38V39h-4.81v-7.32h-3.7v-2.32H21.4
					v2.31h-3.7V39h-3.38v15.25h-3.16c-2.298,0-4.16,1.863-4.159,4.161c0,2.297,1.862,4.159,4.159,4.159h3.16v36.07h99.13V62.57h3.39
					c2.298,0,4.16-1.862,4.161-4.159c0-2.298-1.862-4.16-4.159-4.161C116.841,54.25,116.84,54.25,116.84,54.25z M11.16,60.42
					c-1.105,0-2-0.895-2-2s0.895-2,2-2s2,0.895,2,2S12.265,60.42,11.16,60.42z M116.84,60.42c-1.105,0-2-0.895-2-2s0.895-2,2-2
					s2,0.895,2,2S117.945,60.42,116.84,60.42z"/>
				<path style="fill:#455A64;" d="M29.49,29.36v2.31h3.7V39H38v-7.32h15.51V39h7.08v-4.55c0.005-1.528,1.242-2.765,2.77-2.77h50.09
					v22.57h3.39c2.298,0,4.16,1.862,4.161,4.159c0,2.298-1.862,4.16-4.159,4.161c0,0-0.001,0-0.001,0h-3.39v36.07H14.32V62.57h-3.16
					c-2.298,0-4.16-1.863-4.159-4.161c0-2.297,1.862-4.159,4.159-4.159h3.16V39h3.39v-7.32h3.7v-2.32h8.09 M116.85,60.42
					c1.105,0,2-0.895,2-2s-0.895-2-2-2s-2,0.895-2,2S115.745,60.42,116.85,60.42 M11.17,60.42c1.105,0,2-0.895,2-2s-0.895-2-2-2
					s-2,0.895-2,2S10.065,60.42,11.17,60.42 M30.49,28.36H20.4v2.31h-3.7V38h-3.38v15.25h-2.16c-2.85,0-5.16,2.311-5.159,5.161
					c0,2.849,2.31,5.159,5.159,5.159h2.16v36.07h101.13V63.57h2.39c2.85,0,5.16-2.31,5.161-5.159c0-2.85-2.31-5.16-5.159-5.161
					c0,0-0.001,0-0.001,0h-2.39V30.68H63.36c-2.08,0.005-3.765,1.69-3.77,3.77V38h-5.08v-7.32H37V38h-2.81v-7.32h-3.7
					C30.49,30.68,30.49,28.36,30.49,28.36z M116.84,59.42c-0.552,0-1-0.448-1-1s0.448-1,1-1s1,0.448,1,1S117.392,59.42,116.84,59.42
					z M11.16,59.42c-0.552,0-1-0.448-1-1s0.448-1,1-1s1,0.448,1,1S11.712,59.42,11.16,59.42z"/>
				
					<linearGradient id="SVGID_1_" gradientUnits="userSpaceOnUse" x1="7.0007" y1="71.59" x2="18.4" y2="71.59" gradientTransform="matrix(1 0 0 -1 0 130)">
					<stop  offset="0" style="stop-color:#E0E0E0"/>
					<stop  offset="1" style="stop-color:#9E9E9E"/>
				</linearGradient>
				<path style="fill:url(#SVGID_1_);" d="M11.16,54.25c-2.298,0-4.16,1.863-4.159,4.161c0,2.297,1.862,4.159,4.159,4.159h7.24
					v-8.32H11.16z M11.16,60.42c-1.105,0-2-0.895-2-2s0.895-2,2-2s2,0.895,2,2S12.265,60.42,11.16,60.42z"/>
				
					<linearGradient id="SVGID_2_" gradientUnits="userSpaceOnUse" x1="109.6" y1="71.59" x2="121.0007" y2="71.59" gradientTransform="matrix(1 0 0 -1 0 130)">
					<stop  offset="0" style="stop-color:#9E9E9E"/>
					<stop  offset="1" style="stop-color:#E0E0E0"/>
				</linearGradient>
				<path style="fill:url(#SVGID_2_);" d="M109.6,54.25v8.32h7.24c2.298,0,4.16-1.862,4.161-4.159c0-2.298-1.862-4.16-4.159-4.161
					c0,0-0.001,0-0.001,0H109.6z M114.83,58.41c0-1.105,0.895-2,2-2s2,0.895,2,2s-0.895,2-2,2S114.83,59.515,114.83,58.41z"/>
				
					<radialGradient id="SVGID_3_" cx="1570.543" cy="-144.3165" r="165.46" gradientTransform="matrix(0.23 0 0 -0.23 -298.35 36.84)" gradientUnits="userSpaceOnUse">
					<stop  offset="0" style="stop-color:#000000"/>
					<stop  offset="1" style="stop-color:#212121"/>
				</radialGradient>
				<rect x="14.32" y="46.35" style="fill:url(#SVGID_3_);" width="99.13" height="46.09"/>
				
					<radialGradient id="SVGID_4_" cx="1570.543" cy="-248.2865" r="150.09" gradientTransform="matrix(0.23 0 0 -0.23 -298.35 36.84)" gradientUnits="userSpaceOnUse">
					<stop  offset="0.36" style="stop-color:#E0E0E0"/>
					<stop  offset="0.53" style="stop-color:#DCDCDC"/>
					<stop  offset="0.68" style="stop-color:#D2D2D2"/>
					<stop  offset="0.82" style="stop-color:#BFBFBF"/>
					<stop  offset="0.96" style="stop-color:#A6A6A6"/>
					<stop  offset="1" style="stop-color:#9E9E9E"/>
				</radialGradient>
				<rect x="14.32" y="92.44" style="fill:url(#SVGID_4_);" width="99.13" height="2.48"/>
				<rect x="14.32" y="94.92" style="fill:#212121;" width="99.13" height="3.72"/>
				
					<radialGradient id="SVGID_5_" cx="281.63" cy="391.97" r="232.64" gradientTransform="matrix(1 0 0 -1 0 130)" gradientUnits="userSpaceOnUse">
					<stop  offset="0.36" style="stop-color:#E0E0E0"/>
					<stop  offset="0.53" style="stop-color:#DCDCDC"/>
					<stop  offset="0.68" style="stop-color:#D2D2D2"/>
					<stop  offset="0.82" style="stop-color:#BFBFBF"/>
					<stop  offset="0.96" style="stop-color:#A6A6A6"/>
					<stop  offset="1" style="stop-color:#9E9E9E"/>
				</radialGradient>
				<rect x="14.32" y="47.83" style="fill:url(#SVGID_5_);" width="99.13" height="3.72"/>
				
					<radialGradient id="SVGID_6_" cx="281.63" cy="437.68" r="268.24" gradientTransform="matrix(1 0 0 -1 0 130)" gradientUnits="userSpaceOnUse">
					<stop  offset="0.36" style="stop-color:#E0E0E0"/>
					<stop  offset="0.53" style="stop-color:#DCDCDC"/>
					<stop  offset="0.68" style="stop-color:#D2D2D2"/>
					<stop  offset="0.82" style="stop-color:#BFBFBF"/>
					<stop  offset="0.96" style="stop-color:#A6A6A6"/>
					<stop  offset="1" style="stop-color:#9E9E9E"/>
				</radialGradient>
				<path style="fill:url(#SVGID_6_);" d="M99.12,31.68H63.36c-1.528,0.005-2.765,1.242-2.77,2.77V39H14.32v7.33h99.13V31.68H99.12z
					"/>
				
					<linearGradient id="SVGID_7_" gradientUnits="userSpaceOnUse" x1="45.76" y1="90.99" x2="45.76" y2="98.32" gradientTransform="matrix(1 0 0 -1 0 130)">
					<stop  offset="0" style="stop-color:#455A64"/>
					<stop  offset="1" style="stop-color:#607D8B"/>
				</linearGradient>
				<rect x="38.02" y="31.68" style="fill:url(#SVGID_7_);" width="15.48" height="7.33"/>
				
					<linearGradient id="SVGID_8_" gradientUnits="userSpaceOnUse" x1="101.28" y1="85.44" x2="101.28" y2="96.01" gradientTransform="matrix(1 0 0 -1 0 130)">
					<stop  offset="0" style="stop-color:#607D8B"/>
					<stop  offset="1" style="stop-color:#455A64"/>
				</linearGradient>
				<rect x="93.54" y="33.99" style="fill:url(#SVGID_8_);" width="15.48" height="10.57"/>
				<rect x="94.92" y="35.37" style="fill:#90A4AE;" width="12.71" height="7.8"/>
				<rect x="78.55" y="34.88" style="fill:#FFFFFF;" width="12.42" height="8.77"/>
				<rect x="79.01" y="35.35" style="fill:#4FC3F7;" width="11.5" height="7.85"/>
				<g>
					<g style="opacity:0.75;">
						<rect x="79.01" y="35.35" style="fill:#2487AA;" width="11.5" height="7.85"/>
					</g>
				</g>
				
					<linearGradient id="SVGID_9_" gradientUnits="userSpaceOnUse" x1="25.45" y1="90.99" x2="25.45" y2="98.32" gradientTransform="matrix(1 0 0 -1 0 130)">
					<stop  offset="0" style="stop-color:#90A4AE"/>
					<stop  offset="1" style="stop-color:#CFD8DC"/>
				</linearGradient>
				<rect x="17.71" y="31.68" style="fill:url(#SVGID_9_);" width="15.48" height="7.33"/>
				<rect x="21.4" y="29.36" style="fill:#F44336;" width="8.09" height="2.31"/>
				
					<linearGradient id="SVGID_10_" gradientUnits="userSpaceOnUse" x1="28.8276" y1="58.84" x2="45.36" y2="58.84" gradientTransform="matrix(1 0 0 -1 0 130)">
					<stop  offset="0" style="stop-color:#E0E0E0"/>
					<stop  offset="1" style="stop-color:#9E9E9E"/>
				</linearGradient>
				<path style="fill:url(#SVGID_10_);" d="M34.65,65.34c-3.214-0.001-5.821,2.603-5.822,5.818
					c-0.001,3.214,2.603,5.821,5.818,5.822c0.002,0,0.003,0,0.005,0h10.71V65.34H34.65z M34.65,74.68c-1.944,0-3.52-1.576-3.52-3.52
					c0-1.944,1.576-3.52,3.52-3.52s3.52,1.576,3.52,3.52l0,0C38.17,73.104,36.594,74.68,34.65,74.68
					C34.65,74.68,34.65,74.68,34.65,74.68z"/>
				<circle style="fill:#7C7C7C;" cx="63.54" cy="71.21" r="23.71"/>
				<circle style="fill:#2B2B2B;" cx="63.54" cy="71.21" r="21.22"/>
				
					<linearGradient id="SVGID_11_" gradientUnits="userSpaceOnUse" x1="63.54" y1="43.05" x2="63.54" y2="74.53" gradientTransform="matrix(1 0 0 -1 0 130)">
					<stop  offset="0" style="stop-color:#9E9E9E"/>
					<stop  offset="1" style="stop-color:#E0E0E0"/>
				</linearGradient>
				<circle style="fill:url(#SVGID_11_);" cx="63.54" cy="71.21" r="15.74"/>
				<circle style="fill:#FFFFFF;" cx="63.54" cy="71.21" r="7.92"/>
				<circle style="fill:#7F7F7F;" cx="63.54" cy="71.21" r="7.23"/>
				<g>
					<defs>
						<circle id="SVGID_12_" cx="63.54" cy="71.21" r="21.22"/>
					</defs>
					<clipPath id="SVGID_13_">
						<use xlink:href="#SVGID_12_"  style="overflow:visible;"/>
					</clipPath>
					<g style="clip-path:url(#SVGID_13_);">
						<polygon style="opacity:0.23;fill:#EEE8D5;enable-background:new    ;" points="92.75,95.37 57.08,95.37 71.68,41.23 
							92.75,41.23 						"/>
					</g>
				</g>
				<circle style="fill:#F44336;" cx="66.77" cy="37.31" r="1.96"/>
			</g>
		</g>
	</g>
</g>
</svg>

<svg xmlns="http://www.w3.org/2000/svg" xmlns:xlink="http://www.w3.org/1999/xlink" viewBox="0 0 128 128"><defs><style>.cls-1{fill:none;}.cls-2,.cls-30{isolation:isolate;}.cls-3{opacity:0.2;}.cls-4{opacity:0.08;}.cls-5{opacity:0.1;}.cls-6{fill:#455a64;}.cls-7{fill:url(#未命名的渐变_42);}.cls-8{fill:url(#未命名的渐变_43);}.cls-9{fill:url(#未命名的渐变_17);}.cls-10{fill:url(#未命名的渐变_40);}.cls-11{fill:#212121;}.cls-12{fill:url(#未命名的渐变_40-2);}.cls-13{fill:url(#未命名的渐变_40-3);}.cls-14{fill:url(#未命名的渐变_24);}.cls-15{fill:url(#未命名的渐变_29);}.cls-16{fill:#90a4ae;}.cls-17{fill:#fff;}.cls-18{fill:#4fc3f7;}.cls-19{mask:url(#mask);}.cls-20{opacity:0.75;mix-blend-mode:multiply;}.cls-21{fill:#2487aa;}.cls-22{fill:url(#未命名的渐变_28);}.cls-23{fill:#f44336;}.cls-24{fill:url(#未命名的渐变_41);}.cls-25{fill:#7c7c7c;}.cls-26{fill:#2b2b2b;}.cls-27{fill:url(#未命名的渐变_33);}.cls-28{fill:#7f7f7f;}.cls-29{clip-path:url(#clip-path);}.cls-30{fill:#eee8d5;opacity:0.23;}.cls-31{filter:url(#luminosity-invert);}</style><linearGradient id="未命名的渐变_42" x1="7" y1="58.41" x2="18.4" y2="58.41" gradientUnits="userSpaceOnUse"><stop offset="0" stop-color="#e0e0e0"/><stop offset="1" stop-color="#9e9e9e"/></linearGradient><linearGradient id="未命名的渐变_43" x1="109.6" y1="58.41" x2="121" y2="58.41" gradientUnits="userSpaceOnUse"><stop offset="0" stop-color="#9e9e9e"/><stop offset="1" stop-color="#e0e0e0"/></linearGradient><radialGradient id="未命名的渐变_17" cx="281.63" cy="-177.64" r="165.46" gradientTransform="translate(-1.9 110.89) scale(0.23)" gradientUnits="userSpaceOnUse"><stop offset="0"/><stop offset="1" stop-color="#212121"/></radialGradient><radialGradient id="未命名的渐变_40" cx="281.63" cy="-73.67" r="150.09" gradientTransform="translate(-1.9 110.89) scale(0.23)" gradientUnits="userSpaceOnUse"><stop offset="0.36" stop-color="#e0e0e0"/><stop offset="0.53" stop-color="#dcdcdc"/><stop offset="0.68" stop-color="#d2d2d2"/><stop offset="0.82" stop-color="#bfbfbf"/><stop offset="0.96" stop-color="#a6a6a6"/><stop offset="1" stop-color="#9e9e9e"/></radialGradient><radialGradient id="未命名的渐变_40-2" cx="281.63" cy="-261.97" r="232.64" xlink:href="#未命名的渐变_40"/><radialGradient id="未命名的渐变_40-3" cx="281.63" cy="-307.68" r="268.24" xlink:href="#未命名的渐变_40"/><linearGradient id="未命名的渐变_24" x1="45.77" y1="39.01" x2="45.77" y2="31.68" gradientUnits="userSpaceOnUse"><stop offset="0" stop-color="#455a64"/><stop offset="1" stop-color="#607d8b"/></linearGradient><linearGradient id="未命名的渐变_29" x1="101.28" y1="44.56" x2="101.28" y2="33.99" gradientUnits="userSpaceOnUse"><stop offset="0" stop-color="#607d8b"/><stop offset="1" stop-color="#455a64"/></linearGradient><filter id="luminosity-invert" filterUnits="userSpaceOnUse" color-interpolation-filters="sRGB"><feColorMatrix values="-1 0 0 0 1 0 -1 0 0 1 0 0 -1 0 1 0 0 0 1 0"/></filter><mask id="mask" x="77" y="33" width="16" height="13" maskUnits="userSpaceOnUse"><g class="cls-31"><image width="16" height="13" transform="translate(77 33)" xlink:href="data:image/png;base64,iVBORw0KGgoAAAANSUhEUgAAABAAAAANCAIAAAAv2XlzAAAACXBIWXMAAAsSAAALEgHS3X78AAAArElEQVQoU72RSwvCMBCE26Sxh4Q8vDQ0pkH8///RjxULKUXwoHOanZndzWMY/oRxHLXW0zQZYy5vGAEiFoGuAWmeZ+dcCCGldBVAKBGxCHQNjLHWEso5l1JuAgglIhaBroHV3vtlWci11u4CCCUiFoFjA9uZt20b0YcAUmtFxDpp+G7DfgfsdV2LAEJ5fgelFE+BwbAYYxJAOAwiFoGugWdGev3D/hWf/uGHeAL49hMtI8O5kQAAAABJRU5ErkJggg=="/></g></mask><linearGradient id="未命名的渐变_28" x1="25.45" y1="39.01" x2="25.45" y2="31.68" gradientUnits="userSpaceOnUse"><stop offset="0" stop-color="#90a4ae"/><stop offset="1" stop-color="#cfd8dc"/></linearGradient><linearGradient id="未命名的渐变_41" x1="28.83" y1="71.16" x2="45.36" y2="71.16" xlink:href="#未命名的渐变_42"/><linearGradient id="未命名的渐变_33" x1="63.53" y1="86.96" x2="63.53" y2="55.47" xlink:href="#未命名的渐变_43"/><clipPath id="clip-path"><circle class="cls-1" cx="63.54" cy="71.21" r="21.22"/></clipPath></defs><title>画板 19</title><g class="cls-2"><g id="开始菜单应用图标"><g id="照相机"><g id="_128" data-name="128"><g class="cls-3"><path d="M12.32,100.64V64.57H11.16a6.16,6.16,0,0,1,0-12.32h1.16V37h3.39V29.68h3.7V27.36H31.49v2.31h3.7V37H36V29.68H55.51V37h3.08V34.45a4.78,4.78,0,0,1,4.77-4.77h52.09V52.25h1.39a6.16,6.16,0,0,1,0,12.32h-1.39v36.06Z"/></g><g class="cls-4"><path d="M12.32,104.64V68.53a8.16,8.16,0,0,1,0-16.23V37h3.39V29.68h3.7V27.36H35.49v2.31h24V33a6.78,6.78,0,0,1,5.85-3.37h54.09v22.6a8.16,8.16,0,0,1,0,16.27v36.09Z"/></g><g class="cls-5"><path d="M14.32,102.64V66.57H13.16a6.16,6.16,0,0,1,0-12.32h1.16V39h3.39V31.68h3.7V29.36H33.49v2.31h3.7V39H38V31.68H57.51V39h3.08V36.45a4.78,4.78,0,0,1,4.77-4.77h52.09V54.25h1.39a6.16,6.16,0,0,1,0,12.32h-1.39v36.06Z"/></g><path d="M116.84,54.25h-3.39V31.68H63.36a2.78,2.78,0,0,0-2.77,2.77V39H53.51V31.68H38V39H33.19V31.68h-3.7V29.36H21.4v2.31h-3.7V39H14.32V54.25H11.16a4.16,4.16,0,0,0,0,8.32h3.16V98.64h99.13V62.57h3.39a4.16,4.16,0,1,0,0-8.32ZM11.16,60.42a2,2,0,1,1,2-2A2,2,0,0,1,11.16,60.42Zm105.68,0a2,2,0,1,1,2-2A2,2,0,0,1,116.84,60.42Z"/><path class="cls-6" d="M29.49,29.36v2.31h3.7V39H38V31.68H53.51V39h7.08V34.45a2.78,2.78,0,0,1,2.77-2.77h50.09V54.25h3.39a4.16,4.16,0,1,1,0,8.32h-3.39V98.64H14.32V62.57H11.16a4.16,4.16,0,0,1,0-8.32h3.16V39h3.39V31.68h3.7V29.36h8.09m87.35,31.06a2,2,0,1,0-2-2,2,2,0,0,0,2,2m-105.68,0a2,2,0,1,0-2-2,2,2,0,0,0,2,2M30.49,28.36H20.4v2.31h-3.7V38H13.32V53.25H11.16a5.16,5.16,0,0,0,0,10.32h2.16V99.64H114.45V63.57h2.39a5.16,5.16,0,1,0,0-10.32h-2.39V30.68H63.36a3.78,3.78,0,0,0-3.77,3.77V38H54.51V30.68H37V38H34.19V30.68h-3.7V28.36Zm86.35,31.06a1,1,0,1,1,1-1,1,1,0,0,1-1,1Zm-105.68,0a1,1,0,1,1,1-1,1,1,0,0,1-1,1Z"/><path class="cls-7" d="M11.16,54.25a4.16,4.16,0,0,0,0,8.32H18.4V54.25Zm0,6.17a2,2,0,1,1,2-2A2,2,0,0,1,11.16,60.42Z"/><path class="cls-8" d="M109.6,54.25v8.32h7.24a4.16,4.16,0,1,0,0-8.32Zm5.23,4.16a2,2,0,1,1,2,2A2,2,0,0,1,114.83,58.41Z"/><rect class="cls-9" x="14.32" y="46.35" width="99.13" height="46.09"/><rect class="cls-10" x="14.32" y="92.44" width="99.13" height="2.48"/><rect class="cls-11" x="14.32" y="94.92" width="99.13" height="3.72"/><rect class="cls-12" x="14.32" y="47.83" width="99.13" height="3.72"/><path class="cls-13" d="M99.12,31.68H63.36a2.78,2.78,0,0,0-2.77,2.77V39H14.32v7.33h99.13V31.68Z"/><rect class="cls-14" x="38.02" y="31.68" width="15.48" height="7.33"/><rect class="cls-15" x="93.54" y="33.99" width="15.48" height="10.57"/><rect class="cls-16" x="97.38" y="32.92" width="7.8" height="12.71" transform="translate(140.55 -62.01) rotate(90)"/><rect class="cls-17" x="80.37" y="33.06" width="8.77" height="12.42" transform="translate(124.03 -45.49) rotate(90)"/><rect class="cls-18" x="79.01" y="35.35" width="11.5" height="7.85"/><g class="cls-19"><g class="cls-20"><rect class="cls-21" x="79.01" y="35.35" width="11.5" height="7.85"/></g></g><rect class="cls-22" x="17.71" y="31.68" width="15.48" height="7.33"/><rect class="cls-23" x="21.4" y="29.36" width="8.09" height="2.31"/><path class="cls-24" d="M34.65,65.34a5.82,5.82,0,1,0,0,11.64H45.36V65.34Zm0,9.34a3.52,3.52,0,1,1,3.52-3.52A3.52,3.52,0,0,1,34.65,74.68Z"/><circle class="cls-25" cx="63.54" cy="71.21" r="23.71"/><circle class="cls-26" cx="63.54" cy="71.21" r="21.22"/><circle class="cls-27" cx="63.54" cy="71.21" r="15.74"/><circle class="cls-17" cx="63.54" cy="71.21" r="7.92"/><circle class="cls-28" cx="63.54" cy="71.21" r="7.23"/><g class="cls-29"><polygon class="cls-30" points="92.75 95.37 57.08 95.37 71.68 41.23 92.75 41.23 92.75 95.37"/></g><circle class="cls-23" cx="66.77" cy="37.31" r="1.96"/></g></g></g></g></svg>
